X: 48
T: JIG: Jimmy Ward's
T: Jim Ward's
C: C: Trad.; S: Various
C: Set Leaders: Mars, Tania, Sophie, Anton
Z: Mars Agliullin ed.; Phantom Button at The Session
N: https://thesession.org/members/26966/sets/94272
R: Jig
M: 6/8
L: 1/8
Q: 3/8=116
K: Gmaj
|:~G3 GAB|AGE GED|~G3 AGE|GED DEF|
~G3 GAB|AGE GAB|cBA BGE|1 DED DEF:|2 DED D2B||
|:cBA BAG|ABA AGE|cBA BGE|DED D2B|
cBA BAG|~A3 ABc|dcB AGE|1 GED D2B:|2 GED DEF||

